!!!COM:	Martini, Johannes
!!!CDT:	~1440///-~1497//
!!!OTL:	Beatus vir
!!!AGN:	Motet
!!!SCT:	Mar2008
!!!SCA:	Mar2008
!!!voices:	2
**kern	**kern
*staff2	*staff1
*Ivox	*Ivox
*I"Tenor	*I"Superius
*I'T	*I'S
*>[A,B,C,D,E,F,G,H,I,J,K]	*>[A,B,C,D,E,F,G,H,I,J,K]
*>A	*>A
*clefGv2	*clefG2
*k[]	*k[]
*M2/1	*M2/1
*met(C)	*met(C)
=1-	=1-
!!LO:TX:Z=8:t=Choir 1
!!section: In mandatis ejus
!!!OMD: In mandatis ejus
1A	1a
2c\	2a/
2c\	2a/
=2	=2
2c\	2a/
2c\	2a/
1B	1g
=3	=3
2c\	2a/
2d\	2b\
2B\	2g/
2c\	[2a/
=4	=4
1A	2a/]
.	4g/
.	4f/
2G/	2e/
[2A/	[2f/
=5	=5
4A/]	2f/]
4G/	.
2E/	1e
1F	.
.	2d/
=6	=6
0El	0el
=7||	=7||
*>B	*>B
!!section: Potens in terra
!!!OMD: Potens in terra
!!LO:TX:Z=8:t=Choir 2
1A	1a
2c\	2a/
2c\	2a/
=8	=8
2c\	2a/
2c\	2a/
1c	1a
=9	=9
2B\	2g/
2c\	2a/
2d\	2b\
2A/	[2a/
=10	=10
1B	2a/]
.	2g#i/
1A	1a
=11	=11
1r	1r
2c\	2a/
2c\	2a/
=12	=12
2c\	2a/
2c\	2a/
1c	1a
=13	=13
1B	1g
2c\	2a/
2d\	2b\
=14	=14
2B\	2g/
2c\	1a
1A	.
.	4g/
.	4f/
=15	=15
2G/	2e/
2.A/	1f
4G/	.
2E/	[2e/
=16	=16
1F	2e/]
.	2d/
1El	1el
=17||	=17||
*>C	*>C
!!section: Gloria et
!!!OMD: Gloria et
!!LO:TX:Z=8:t=Choir 1
1A	1a
2c\	2a/
2c\	2a/
=18	=18
2c\	2a/
2c\	2a/
2c\	2a/
2c\	2a/
=19	=19
1A	1a
2B\	2g/
2c\	2a/
=20	=20
2d\	2b\
2A/	1a
1B	.
.	2g#i/
=21	=21
1A	1a
1r	1r
=22	=22
2c\	2a/
2c\	2a/
2c\	2a/
2c\	2a/
=23	=23
2c\	2a/
2c\	2a/
1A	1a
=24	=24
1c	1a
2c\	2a/
2c\	2a/
=25	=25
1B	1g
2c\	2a/
2d\	2b\
=26	=26
2B\	2g/
2c\	1a
1A	.
.	4g/
.	4f/
=27	=27
2G/	2e/
2.A/	1f
4G/	.
2E/	[2e/
=28	=28
1F	2e/]
.	2d/
1El	1el
=29||	=29||
*>D	*>D
!!section: Exortum est
!!!OMD: Exortum est
!!LO:TX:Z=8:t=Choir 2
1A	1a
2c\	2a/
2c\	2a/
=30	=30
1c	1a
2B\	2g/
2c\	2a/
=31	=31
2d\	2b\
2e\	1cc
2c\	.
[2d\	[2b\
=32	=32
2d\]	2b\]
2c\	1a
1B	.
.	2g#i/
=33	=33
1A	1a
1r	1r
=34	=34
1c	1a
2c\	2a/
2c\	2a/
=35	=35
1c	1a
1B	1g
=36	=36
2c\	2a/
2d\	2b\
2B\	2g/
2c\	[2a/
=37	=37
1A	2a/]
.	4g/
.	4f/
2G/	2e/
[2A/	[2f/
=38	=38
2A/]	2f/]
2E/	1e
1F	.
.	2d/
=39	=39
0El	0el
=40||	=40||
*>E	*>E
!!LO:TX:Z=8:t=Choir 1
!!section: Jucundus homo
!!!OMD: Jucundus homo
2A/	2a/
2A/	2a/
2c\	2a/
2c\	2a/
=41	=41
1c	1a
2c\	2a/
2c\	2a/
=42	=42
2c\	2a/
2c\	2a/
2c\	2a/
2c\	2a/
=43	=43
1c	1a
1B	1g
=44	=44
1B	1g
1r	1r
=45	=45
2c\	2a/
2c\	2a/
1c	1a
=46	=46
2c\	2a/
2c\	2a/
2c\	2a/
2c\	2a/
=47	=47
1c	1a
2B\	2g/
2c\	2a/
=48	=48
2d\	2b\
2A/	1a
1B	.
.	2g#i/
=49	=49
1A	1a
1r	1r
=50	=50
1c	1a
2c\	2a/
2c\	2a/
=51	=51
2c\	2a/
2c\	2a/
1B	1g
=52	=52
2c\	2a/
2d\	2b\
2B\	2g/
2c\	[2a/
=53	=53
1A	2a/]
.	4g/
.	4f/
2G/	2e/
[2A/	[2f/
=54	=54
4A/]	2f/]
4G/	.
2E/	1e
1F	.
.	2d/
=55	=55
0El	0el
=56||	=56||
*>F	*>F
!!LO:TX:Z=8:t=Choir 2
!!section: In memoria
!!!OMD: In memoria
2A/	2a/
2A/	2a/
2c\	2a/
2c\	2a/
=57	=57
1c	1a
2A/	2a/
2B\	2g/
=58	=58
2c\	2a/
1d	1b
2c\	[2a/
=59	=59
1B	2a/]
.	2g#i/
1A	1a
=60	=60
1r	1r
1c	1a
=61	=61
2c\	2a/
2c\	2a/
2c\	2a/
2c\	2a/
=62	=62
1c	1a
1B	1g
=63	=63
2c\	2a/
2d\	2b\
2B\	2g/
2c\	[2a/
=64	=64
1A	2a/]
.	4g/
.	4f/
2G/	2e/
[2A/	[2f/
=65	=65
4A/]	2f/]
4G/	.
2E/	1e
1F	.
.	2d/
=66	=66
0El	0el
=67||	=67||
*>G	*>G
!!LO:TX:Z=8:t=Choir 1
!!section: Paratum cor ejus
!!!OMD: Paratum cor ejus
1A	1a
2c\	2a/
2c\	2a/
=68	=68
2c\	2a/
2c\	2a/
1c	1a
=69	=69
2c\	2a/
2c\	2a/
2c\	2a/
2c\	2a/
=70	=70
1.c	1.a
2B\	2g/
=71	=71
1B	1g
1r	1r
=72	=72
1A	2a/
.	2a/
2c\	2a/
2c\	2a/
=73	=73
1B	1g
2c\	2a/
[2d\	[2b\
=74	=74
2d\]	2b\]
2c\	1a
1B	.
.	2g#i/
=75	=75
1A	1a
1r	1r
=76	=76
1c	1a
2c\	2a/
2c\	2a/
=77	=77
2c\	2a/
2c\	2a/
1c	1a
=78	=78
1c	1a
2c\	2a/
2A/	2a/
=79	=79
2B\	2g/
2c\	2a/
2d\	2b\
2B\	2g/
=80	=80
1A	2a/
.	4g/
.	4f/
2G/	2e/
[2A/	[2f/
=81	=81
4A/]	2f/]
4G/	.
2E/	1e
1F	.
.	2d/
=82	=82
0El	0el
=83||	=83||
*>H	*>H
!!section: Dispersit, dedit
!!!OMD: Dispersit, dedit
!!LO:TX:Z=8:t=Choir 2
2A/	2a/
2A/	2a/
2c\	2a/
2c\	2a/
=84	=84
1c	1a
1d	2b\
.	[2a/
=85	=85
2c\	2a/]
2B\	1g
1A	.
.	2f#i/
=86	=86
1G	1g
1r	1r
=87	=87
1c	1a
2c\	2a/
2c\	2a/
=88	=88
2c\	2a/
2c\	2a/
1c	1a
=89	=89
2c\	2a/
2c\	2a/
2A/	2a/
2B\	2g/
=90	=90
2c\	2a/
1d	1b
2c\	[2a/
=91	=91
1B	2a/]
.	2g#i/
1A	1a
=92	=92
1r	1r
1c	1a
=93	=93
2c\	2a/
2c\	2a/
1c	1a
=94	=94
1B	1g
2c\	2a/
2d\	2b\
=95	=95
2B\	2g/
2c\	1a
1A	.
.	4g/
.	4f/
=96	=96
2G/	2e/
2.A/	1f
4G/	.
2E/	[2e/
=97	=97
1F	2e/]
.	2d/
1El	1el
=98||	=98||
*>I	*>I
!!LO:TX:Z=8:t=Choir 1
!!section: Peccator videbit
!!!OMD: Peccator videbit
1A	1a
2c\	2a/
2c\	2a/
=99	=99
2c\	2a/
2c\	2a/
1c	1a
=100	=100
1A	2r
.	2a/
2c\	2a/
2c\	2a/
=101	=101
1c	1a
1B	1g
=102	=102
1r	1r
1A	1a
=103	=103
2c\	2a/
2c\	2a/
1c	1a
=104	=104
2A/	2a/
2B\	2g/
2c\	2a/
[2d\	[2b\
=105	=105
2d\]	2b\]
2c\	1a
1B	.
.	2g#i/
=106	=106
1A	1a
1r	1r
=107	=107
2c\	2a/
2c\	2a/
2c\	2a/
2c\	2a/
=108	=108
1c	1a
2B\	2g/
2c\	2a/
=109	=109
2d\	2b\
2B\	2g/
1A	2a/
.	4g/
.	4f/
=110	=110
2G/	2e/
2.A/	1f
4G/	.
2E/	[2e/
=111	=111
1F	2e/]
.	2d/
1El	1el
=112||	=112||
*>J	*>J
!!LO:TX:Z=8:t=Choir 2
!!section: Gloria Patri
!!!OMD: Gloria Patri
1A	1a
2c\	2a/
2c\	2a/
=113	=113
1c	1a
1B	1g
=114	=114
2c\	2a/
2.d\	2.b\
4c\	4a/
2A/	[2a/
=115	=115
1B	2a/]
.	2g#i/
1A	1a
=116	=116
1r	1r
1c	1a
=117	=117
1B	1g
2c\	2a/
2d\	2b\
=118	=118
2B\	2g/
2c\	1a
1A	.
.	4g/
.	4f/
=119	=119
2G/	2e/
2.A/	2.f/
4G/	4e/
2E/	[2e/
=120	=120
1F	2e/]
.	2d/
1E	1e
=121	=121
2A/	2a/
2A/	2a/
2c\	2a/
2c\	2a/
=122	=122
2c\	2a/
2c\	2a/
2c\	2a/
2c\	2a/
=123	=123
1c	1a
2B\	2g/
2c\	2a/
=124	=124
2d\	2b\
2A/	1a
1B	.
.	2g#i/
=125	=125
0Al	0al
=126||	=126||
*>K	*>K
!!LO:TX:Z=8:t=Choir 1
!!section: Sicut erat
!!!OMD: Sicut erat
2c\	2a/
2c\	2a/
2c\	2a/
2c\	2a/
=127	=127
1c	1a
2B\	2g/
2c\	2a/
=128	=128
2d\	2b\
2B\	2g/
1A	2a/
.	4g/
.	4f/
=129	=129
2G/	2e/
1A	1f
2E/	[2e/
=130	=130
1F	2e/]
.	2d/
1El	1el
==	==
*-	*-
!!!RDF**kern: l=long note in original notation
!!!RDF**kern: i=editorial accidental
!!!ENC:	Chris Gage 12-04-2013
!!!END:	2014/10/06/
!!!EED:	Jesse Rodin
!!!EEV:	2014/10/13/
!!!ONB:	Translated from MusicXML and edited on 2014/10/13/ by Craig Sapp
!!muse2ps: C^@{COM}^i2I150v85,150Q16
